rospo-icon-theme-classic-common/64x64/places/folder-black-mail.svg

<svg height="64" width="64" xmlns="http://www.w3.org/2000/svg"><rect height="32" opacity=".2" rx="2.5" width="50" x="7" y="24"/><path d="m7 44.5c0 1.385 1.115 2.5 2.5 2.5h45c1.385 0 2.5-1.115 2.5-2.5v-27c0-1.385-1.115-2.5-2.5-2.5h-25.5v-2.5c0-1.385-1.115-2.5-2.5-2.5h-17c-1.385 0-2.5 1.115-2.5 2.5" fill="#3f3f3f"/><rect height="32" opacity=".2" rx="2.5" width="50" x="7" y="22"/><rect fill="#dcdcdc" height="20" rx="2.5" width="44" x="10" y="18"/><rect fill="#4f4f4f" height="32" rx="2.5" width="50" x="7" y="23"/><path d="m9.5 10c-1.385 0-2.5 1.115-2.5 2.5v1c0-1.385 1.115-2.5 2.5-2.5h17c1.385 0 2.5 1.115 2.5 2.5v-1c0-1.385-1.115-2.5-2.5-2.5zm19.5 5v1h25.5c1.39 0 2.5 1.115 2.5 2.5v-1c0-1.385-1.11-2.5-2.5-2.5z" fill="#fff" opacity=".1"/><path d="m32 27c-6.627 0-12 5.373-12 12s5.373 12 12 12h7.5s1.406-.601 1.5-2.101c0-1.5-1.5-1.899-1.5-1.899h-7.5c-.39-.003-.779-.034-1.165-.094-1.399-.159-2.511-.598-3.351-1.304l-.012-.008c-2.173-1.492-3.472-3.958-3.473-6.594 0-4.418 3.582-8 8-8 4.419 0 8 3.582 8 8-.001.908-.185 1.49-.48 2.004-.007 0-.013-.004-.02-.004h-1.867c.223-.628.367-1.295.367-2 0-3.314-2.686-6-6-6-3.313 0-6 2.686-6 6s2.686 6 6 6h7.5c1.083-.1 1.845-.743 2.539-1.152 1.525-1.088 1.962-2.621 1.962-4.848 0-6.627-5.373-12-12-12zm0 10c1.104 0 2 .896 2 2 0 1.105-.896 2-2 2-1.105 0-2-.895-2-2 0-1.104.895-2 2-2z" fill="#c2c2c2"/></svg>

<svg xmlns="http://www.w3.org/2000/svg" width="64" height="64" version="1.1">
 <rect style="opacity:0.2" width="50" height="32" x="7" y="24" rx="2.5" ry="2.5"/>
 <path style="fill:#3f3f3f" d="M 7,44.5 C 7,45.885 8.115,47 9.5,47 H 54.5 C 55.885,47 57,45.885 57,44.5 V 17.5 C 57,16.115 55.885,15 54.5,15 H 29 V 12.5 C 29,11.115 27.885,10 26.5,10 H 9.5 C 8.115,10 7,11.115 7,12.5"/>
 <rect style="opacity:0.2" width="50" height="32" x="7" y="22" rx="2.5" ry="2.5"/>
 <rect style="fill:#dcdcdc" width="44" height="20" x="10" y="18" rx="2.5" ry="2.5"/>
 <rect style="fill:#4f4f4f" width="50" height="32" x="7" y="23" rx="2.5" ry="2.5"/>
 <path style="opacity:0.1;fill:#ffffff" d="M 9.5,10 C 8.115,10 7,11.115 7,12.5 V 13.5 C 7,12.115 8.115,11 9.5,11 H 26.5 C 27.885,11 29,12.115 29,13.5 V 12.5 C 29,11.115 27.885,10 26.5,10 Z M 29,15 V 16 H 54.5 C 55.89,16 57,17.115 57,18.5 V 17.5 C 57,16.115 55.89,15 54.5,15 Z"/>
 <path style="fill:#c2c2c2" d="M 32,27 C 25.373,27 20,32.373 20,39 20,45.627 25.373,51 32,51 H 39.5 C 39.5,51 40.906,50.399 41,48.899 41,47.399 39.5,47 39.5,47 H 32 C 31.61,46.997 31.221,46.966 30.835,46.906 29.436,46.747 28.324,46.308 27.484,45.602 L 27.472,45.594 C 25.299,44.102 24,41.636 23.999,39 23.999,34.582 27.581,31 31.999,31 36.418,31 39.999,34.582 39.999,39 39.998,39.908 39.814,40.49 39.519,41.004 39.512,41.004 39.506,41 39.499,41 H 37.632 C 37.855,40.372 37.999,39.705 37.999,39 37.999,35.686 35.313,33 31.999,33 28.686,33 25.999,35.686 25.999,39 25.999,42.314 28.685,45 31.999,45 H 39.499 C 40.582,44.9 41.344,44.257 42.038,43.848 43.563,42.76 44,41.227 44,39 44,32.373 38.627,27 32,27 Z M 32,37 C 33.104,37 34,37.896 34,39 34,40.105 33.104,41 32,41 30.895,41 30,40.105 30,39 30,37.896 30.895,37 32,37 Z"/>
</svg>
